X:1
T:Rolland, 88.88.8
T:Rolland, 88.88.8
T:William Batchelder Bradbury, 1844
T:Public Domain Courtesy of the Cyber Hymnal™
C:William Batchelder Bradbury, 1844
Z:Public Domain
Z:Courtesy of the Cyber Hymnal™
%%score ( 1 2 ) ( 3 4 )
L:1/8
M:3/2
K:G
V:1 treble 
V:2 treble 
V:3 bass 
V:4 bass 
V:1
 [DG]4 | [DG]2 [DG]2 [EG]4 [FA]4 | [GB]2 [DG]2 [CE]4 [CE]4 | D2 [B,D]2 [DG]2 [DA]2 [DB]2 [^CG]2 | %4
 [DA]8 [Fd]4 | [Gd]2 [Fd]2 [Gd]4 [Fc]4 | [GB]2 [AB]2 [GB]4 (B2 A2) | %7
 [EG]2 [EG]2 [DG]2 [DG]2 [DA]2 [DA]2 | [DB]8 [DG]4 | (AG) (FE) D4 [DG]4 | [DB]2 [DA]2 [DG]4 |] %11
V:2
 x4 | x12 | x12 | D2 x10 | x12 | x12 | x8 F4 | x12 | x12 | E2 C2 D4 x4 | x8 |] %11
V:3
 [G,B,]4 | [G,B,]2 [G,B,]2 [E,B,]4 [D,D]4 | [G,D]2 [B,,G,]2 [C,G,]4 [C,G,]4 | %3
 [B,,G,]2 [G,,G,]2 [B,,G,]2 [D,F,]2 G,2 [E,G,]2 | [D,F,]8 [D,A,]4 | [G,B,]2 [A,C]2 [B,D]4 [A,D]4 | %6
 [G,D]2 [F,^D]2 [E,E]4 [B,,D]4 | [C,E]2 [C,C]2 [G,,B,]2 [B,,G,]2 [D,F,]2 [D,F,]2 | G,8 [B,,G,]4 | %9
 [C,G,]2 [C,G,]2 [B,,G,]4 [G,,B,]4 | [D,D]2 [D,C]2 [G,,B,]4 |] %11
V:4
 x4 | x12 | x12 | x8 G,2 x2 | x12 | x12 | x12 | x12 | G,8 x4 | x12 | x8 |] %11

